X:26
T:Nystev
R:Stev
C:Trad
H:
N:
O:Norge - Norway - Norvge
A:Setesdal
Z:<anamnese@laposte.net> -- http://anamnese.fr.st
M:5/2
L:1/8
Q:1/8=90
K:C
A | A G uB Hd A | G G vF/G/ A A | vF G vF D uB, | C C HD D |
A | A G uB Hd A | G G vF/G/ A A | vF G {vF}D D uB, | C _E HD ||
W:Saa klaarna livet, Saa vakna voni
W:Saa saag eg sommar og sol paa jordi
W:Saa ljos og klaare laag livsens veg
W:daa eg elska han og han elska meg.
